dist/assets/img/sitemap.svg

<svg width="13" height="12" viewBox="0 0 13 12" fill="none" xmlns="http://www.w3.org/2000/svg">
<path d="M12.1334 8.65116H11.6459V6.80315C11.6459 6.00361 10.9046 5.30232 10.0596 5.30232H6.77088V3.62789H7.52923C8.00751 3.62698 8.395 3.22768 8.39589 2.73488V0.893016C8.395 0.400187 8.00749 0.000915699 7.52923 0H5.47087C4.99259 0.000915699 4.6051 0.400213 4.60421 0.893016V2.73488C4.6051 3.22771 4.99261 3.62698 5.47087 3.62789H6.22922V5.30232H2.94045C2.09545 5.30232 1.35417 6.00361 1.35417 6.80315V8.65116H0.866663C0.388403 8.6521 0.000888677 9.05137 0 9.5442V11.107C0.000888677 11.5998 0.388403 11.9991 0.866663 12H2.38333C2.86162 11.9991 3.2491 11.5998 3.24999 11.107V9.5442C3.2491 9.05137 2.86159 8.6521 2.38333 8.65118H1.89583V6.80317C1.89583 6.26346 2.44724 5.86047 2.94043 5.86047H6.22917V8.65118H5.74167C5.26338 8.6521 4.87589 9.0514 4.875 9.5442V11.107C4.87589 11.5998 5.26341 11.9991 5.74167 12H7.25833C7.73662 11.9991 8.12411 11.5998 8.125 11.107V9.5442C8.12411 9.05137 7.73659 8.6521 7.25833 8.65118H6.77083V5.86047H10.0596C10.5528 5.86047 11.1042 6.26346 11.1042 6.80317V8.65118H10.6167C10.1384 8.6521 9.75089 9.0514 9.75001 9.5442V11.107C9.75089 11.5998 10.1384 11.9991 10.6167 12H12.1333C12.6116 11.9991 12.9991 11.5998 13 11.107V9.5442C12.9992 9.05137 12.6117 8.6521 12.1334 8.65116ZM2.38336 9.20932C2.56284 9.20932 2.70836 9.35925 2.70836 9.5442V11.107C2.70836 11.2919 2.56284 11.4419 2.38336 11.4419H0.866663C0.687176 11.4419 0.541661 11.2919 0.541661 11.107V9.5442C0.541661 9.35925 0.687176 9.20932 0.866663 9.20932H2.38336ZM7.25838 9.20932C7.43787 9.20932 7.58339 9.35925 7.58339 9.5442V11.107C7.58339 11.2919 7.43787 11.4419 7.25838 11.4419H5.74172C5.56223 11.4419 5.41672 11.2919 5.41672 11.107V9.5442C5.41672 9.35925 5.56223 9.20932 5.74172 9.20932H7.25838ZM5.47087 3.06976C5.29139 3.06976 5.14587 2.91982 5.14587 2.73488V0.893016C5.14587 0.708071 5.29139 0.558132 5.47087 0.558132H7.52923C7.70871 0.558132 7.85423 0.708071 7.85423 0.893016V2.73488C7.85423 2.91982 7.70871 3.06976 7.52923 3.06976H5.47087ZM12.4584 11.107C12.4584 11.2919 12.3129 11.4419 12.1334 11.4419H10.6167C10.4373 11.4419 10.2917 11.2919 10.2917 11.107V9.5442C10.2917 9.35925 10.4373 9.20932 10.6167 9.20932H12.1334C12.3129 9.20932 12.4584 9.35925 12.4584 9.5442V11.107Z" fill="#161616"/>
</svg>

<svg width="13" height="12" fill="none" xmlns="http://www.w3.org/2000/svg"><path d="M12.133 8.651h-.487V6.803c0-.8-.741-1.5-1.586-1.5H6.77V3.627h.76a.881.881 0 00.866-.893V.893A.882.882 0 007.529 0H5.471c-.478 0-.866.4-.867.893v1.842a.882.882 0 00.867.893h.758v1.674H2.94c-.845 0-1.586.702-1.586 1.501v1.848H.867A.882.882 0 000 9.544v1.563A.88.88 0 00.867 12h1.516c.479 0 .866-.4.867-.893V9.544a.882.882 0 00-.867-.893h-.487V6.803c0-.54.551-.943 1.044-.943h3.29v2.791h-.488a.882.882 0 00-.867.893v1.563a.88.88 0 00.867.893h1.516c.479 0 .866-.4.867-.893V9.544a.882.882 0 00-.867-.893h-.487v-2.79h3.289c.493 0 1.044.402 1.044.942v1.848h-.487a.882.882 0 00-.867.893v1.563a.88.88 0 00.867.893h1.516c.479 0 .866-.4.867-.893V9.544a.882.882 0 00-.867-.893zm-9.75.558c.18 0 .325.15.325.335v1.563a.33.33 0 01-.325.335H.867a.33.33 0 01-.325-.335V9.544a.33.33 0 01.325-.335h1.516zm4.875 0c.18 0 .325.15.325.335v1.563a.33.33 0 01-.325.335H5.742a.33.33 0 01-.325-.335V9.544a.33.33 0 01.325-.335h1.516zM5.471 3.07a.33.33 0 01-.325-.334V.893A.33.33 0 015.47.558h2.058c.18 0 .325.15.325.335v1.842a.33.33 0 01-.325.335H5.471zm6.987 8.038a.33.33 0 01-.325.335h-1.516a.33.33 0 01-.325-.335V9.544a.33.33 0 01.325-.335h1.516c.18 0 .325.15.325.335v1.563z" fill="#161616"/></svg>
